X:370
T: Green Flag
S: "Roche Collection of Traditional Irish Music" [II/62/348]
L: 1/8
M: 2/4
R: polka (% or march or hornpipe)
K: G
GE |: D2 DE | G2 GB | A2 GA | BA GE |
D2 c2 | Bc dB | G3 A | BA GE |
D2 DE | G2 GB | A2 GA | BA GE |
D2 c2 | Bc dB |1 G4 | G3 E :|2 G4 | G3 A ||
B2 d2 | ef ge | d2 B2 | BA GA |
B2 d2 | ef ge | de dB | A2 GA |
B2 d2 | ef ge | de dB | BA GE |
D2 c2 | Bc dB |1 G4 | G3 A :|2 G4 | G3 E ||
